!!!COM: Anonymous
!!!OTL: A ceste derraine venue
!!!AGN: Song; Chanson; Virelai
!!!SCT: Ano3097
!!!SCA: Ano3097
!!!SMS: Dijon Chansonnier
!!!folio: 39v-41r
!!!SMS2: BQ16
!!!voices: 2
**kern	**kern	**kern
*staff3	*staff2	*staff1
*Ivox	*Ivox	*Ivox
*I"Contra	*I"Tenor	*I"Discantus
*I'C	*I'T	*I'D
*>[A,B]	*>[A,B]	*>[A,B]
*>A	*>A	*>A
*clefF4	*clefGv2	*clefG2
*k[b-]	*k[b-]	*k[b-]
*M2/1	*M2/1	*M2/1
*met(C)	*met(C)	*met(C)
=1-	=1-	=1-
!!LO:TX:X=-40:Z=32:t=Form&colon; virelai
!!LO:TX:X=-40:Z=8:t=Flat sig. editorial in D (mm. 11 ff.), Ct (B section), and T
0D	0A	0a
=2	=2	=2
1D	1F	1a
2.F	1c	1a
4G	.	.
=3	=3	=3
1A	1c	1a
2.G	[1d	[1b-
4F	.	.
=4	=4	=4
0D	2d]	2b-]
.	2c	4a
.	.	4g
.	1A	1f
=5	=5	=5
0BB-	1.d	1.b-
.	2c	2a
=6	=6	=6
1F	2c	1a
.	2A	.
2E	2B-	2.g
2C	[2c	.
.	.	4f
=7	=7	=7
1G	2c]	1d
.	2Bni	.
[1C	[1c	1r
=8	=8	=8
1C]	1c]	1e
1C	1r	1e
=9	=9	=9
0r	1C	1e
.	1D	1f
=10	=10	=10
0C	1.E	1.g
.	2D	2f
=11	=11	=11
2r	1D	1f
2D	.	.
2AA	2C	2e
[2BB-	2D	[2d
=12	=12	=12
4BB-]	1F	4d]
4AA	.	4c
1FF	.	2d
.	2r	2c
2AA	2F	2A
=13	=13	=13
2GG	2E	2B-
2FF	1F	1A
[1BB-	.	.
.	2G	[2d
=14	=14	=14
2BB-]	1F	2d]
2.AA	.	1c
.	2C	.
4FF	.	.
2AA	2F	2A
=15	=15	=15
2GG	2G	2B-
2AA	1F	2c
2BB-	.	1G
2C	2E	.
=16	=16	=16
2.FF	0F	1F
4GG	.	.
2AA	.	2r
2BB-	.	2F
=17	=17	=17
2AA	1r	2A
2FF	.	2B-
2r	1E	4c
.	.	4B-
2AA	.	2c
=18	=18	=18
2BB-	2D	2d
1C	2E	1c
.	2F	.
2GG	[2G	2B-
=19	=19	=19
1D	2G]	1A
.	2F#i	.
2GG	[1G	1G
4C	.	.
4D	.	.
=20	=20	=20
4E	2G]	1g
4C	.	.
4E	2A	.
4F	.	.
2.G	1B-	1g
4C	.	.
=21	=21	=21
2.F	1c	1.a
4E	.	.
1D	1F	.
.	.	2g
=22	=22	=22
1C	[0c	1e
1F	.	1a
=23	=23	=23
2E	1c]	2g
2C	.	2e
2BB-	2d	2f
2C	[2c	[2e
=24	=24	=24
1D	4c]	2e]
.	4A	.
.	2B-	2d
1C	1c	1e
=25	=25	=25
0c	0F	1.a
.	.	2g
=26	=26	=26
1C	2r	1g
.	1c	.
2E	.	2e
2D	[2d	2f
=27	=27	=27
1G	2d]	1d
.	2B-	.
1C	1c	2e
.	.	[2c
=28	=28	=28
0r	1F	2c]
.	.	2A
.	2G	2B-
.	[2F	2A
=29	=29	=29
1F	2F]	1d
.	2D	.
2G	2E	2c
[2A	[2F	2A
=30	=30	=30
2A]	2F]	1G
2B-	2G	.
2c	2A	2F
2r	2B-	2G
=31	=31	=31
1F	1c	2A
.	.	1F
4BB-	1d	.
4C	.	.
4D	.	2B-
4E	.	.
=32	=32	=32
2F	2c	2A
2G	2B-	2.d
2A	1A	.
.	.	4c
2F	.	2c
=33	=33	=33
2A	1D	2r
2B-	.	2f
2c	1C	2e
2C	.	[2a
=34	=34	=34
1D	1F	4a]
.	.	4g
.	.	1a
2C	2c	.
[2E-	[2B-	[2g
=35	=35	=35
2E-]	2B-]	2g]
2F	2A	1f
1C	1G	.
.	.	2e
=36	=36	=36
0cl	0Fl	0fl
!!LO:LB:i:g=z
=37||	=37||	=37||
*>B	*>B	*>B
*clefF4	*clefGv2	*clefG2
*k[b-]	*k[b-]	*k[b-]
*M2/1	*M2/1	*M2/1
*met(C)	*met(C)	*met(C)
!!section: Car vraiement
!!!OMD: Car vraiement
2.F	2.A	0r
4E	4G	.
2C	2A	.
2D	2B-	.
=38	=38	=38
1C	2.c	1e
.	4B-	.
2r	2G	2e
2F	2A	2f
=39	=39	=39
2.E	2G	1g
.	1c	.
4C	.	.
1C	.	1e
.	[2A	.
=40	=40	=40
2.F	2A]	1c
.	1F	.
2A	.	.
.	.	1f
4c	.	.
4B-	[2D	.
4A	.	.
=41	=41	=41
2c	4D]	2e
.	4C	.
2A	2F	2.d
2B-	1G	.
.	.	4c
2G	.	2B-
=42	=42	=42
1F	2A	2c
.	2F	2A
2C	2E	1G
[2C	[2G	.
=43	=43	=43
4C]	2G]	2.e
4BB-	.	.
2AA	2C	.
.	.	4c
2GG	2BB-	2d
[2G	2C	[2c
=44	=44	=44
2G]	1D	2c]
2F	.	2Bni
2G	1C	1c
[2A	.	.
=45	=45	=45
2A]	2r	2F
2F	2c	2A
4G	2B-	1G
4A	.	.
4B-	[2d	.
4c	.	.
=46	=46	=46
1A	2d]	1F
.	2c	.
2F	2A	2r
2D	2B-	2f
=47	=47	=47
1E	1G	2g
.	.	2b-
2r	2F	1a
2F	[2c	.
=48	=48	=48
2C	4c]	2g
.	4A	.
2E	2.c	2e
1D	.	2f
.	4A	.
.	2Bni	2g
=49	=49	=49
1CN	1cN	2eN
.	.	1c
1c	1F	.
.	.	2f
=50	=50	=50
2A	2.c	2e
2G	.	2.g
.	4B-	.
2B-	2d	.
.	.	8fL
.	.	8gJ
4A	2c	[2a
[4F	.	.
=51	=51	=51
4F]	2F	4a]
4c	.	4f
4B-	4G	1f
2c	2A	.
4d	4B-	.
2B-	2G	2e
=52	=52	=52
0cl	0Fl	0fl
==	==	==
*-	*-	*-
!!!RDF**kern: l=long note in original notation
!!!RDF**kern: i=editorial accidental
!!!RDF**kern: N=signum congruentiae
!!!ENC: Chris Gage 08-12-2016
!!!END: 2018/09/27/
!!!EED: Jesse Rodin
!!!EEV: 2018/11/29/
!!!ONB: Translated from MusicXML and edited on 2018/11/29/ by Craig Sapp
!!muse2ps: C^@{COM}\n@{SMS}, @{folio}; also @{SMS2}^i2v85,85,150Q8c170
